!!!COM: Palestrina, Giovanni Perluigi da
!!!OPR: Confitebor tibi
!!!OTL: Sanctus
**kern	**kern	**kern	**kern	**kern	**kern	**kern	**kern
*Ibass	*Itenor	*Icalto	*Icant	*Ibass	*Itenor	*Icalto	*Icant
!Bassus	!Tenor	!Altus	!Cantus	!Bassus	!Tenor	!Altus	!Cantus
*clefF4	*clefGv2	*clefG2	*clefG2	*clefF4	*clefGv2	*clefG2	*clefG2
*k[b-]	*k[b-]	*k[b-]	*k[b-]	*k[b-]	*k[b-]	*k[b-]	*k[b-]
*G:dor	*G:dor	*G:dor	*G:dor	*G:dor	*G:dor	*G:dor	*G:dor
*M4/2	*M4/2	*M4/2	*M4/2	*M4/2	*M4/2	*M4/2	*M4/2
=1	=1	=1	=1	=1	=1	=1	=1
0r	0r	0r	0r	1r	1r	0r	0g
.	.	.	.	[1G	[1d	.	.
=2	=2	=2	=2	=2	=2	=2	=2
0r	0r	0r	0r	1G]	1d]	0g	1b-
.	.	.	.	1c	1e	.	1cc
=3	=3	=3	=3	=3	=3	=3	=3
0r	0r	0r	0r	2.B-	1f	1b-	2.dd
.	.	.	.	4A	.	.	4cc
.	.	.	.	4G	1g	1b-	4b-
.	.	.	.	4A	.	.	4cc
.	.	.	.	4B-	.	.	4dd
.	.	.	.	4c	.	.	4ee
=4	=4	=4	=4	=4	=4	=4	=4
0r	0r	0r	0r	1.d	4f	2a	1.ff
.	.	.	.	.	4e	.	.
.	.	.	.	.	4d	4f	.
.	.	.	.	.	4e	4g	.
.	.	.	.	.	4f	4a	.
.	.	.	.	.	4g	4b-	.
.	.	.	.	2A	[2a	2cc	2ee
=5	=5	=5	=5	=5	=5	=5	=5
1r	0r	0r	1r	2B-	4a]	1b-	0dd
.	.	.	.	.	4g	.	.
.	.	.	.	2G	1g	.	.
[1D	.	.	[1a	[1d	.	2.a	.
.	.	.	.	.	4f#	.	.
.	.	.	.	.	4e	4g	.
=6	=6	=6	=6	=6	=6	=6	=6
1D]	0d	0r	1a]	1d]	1f#	1a	0dd
1G	.	.	1b-	1G	1g	1g	.
=7	=7	=7	=7	=7	=7	=7	=7
2.F	1f	0a	1cc	0r	0r	0r	0r
4E	.	.	.	.	.	.	.
4D	1f	.	2dd	.	.	.	.
4E	.	.	.	.	.	.	.
4F	.	.	4cc	.	.	.	.
4G	.	.	4b-	.	.	.	.
=8	=8	=8	=8	=8	=8	=8	=8
2.A	2e	1cc	4a	0r	0r	0r	0r
.	.	.	4g	.	.	.	.
.	4c	.	2a	.	.	.	.
4B-	4d	.	.	.	.	.	.
1c	4e	1cc	1g	.	.	.	.
.	4f	.	.	.	.	.	.
.	[2g	.	.	.	.	.	.
=9	=9	=9	=9	=9	=9	=9	=9
2.G	2g]	1.b-	2.dd	0r	0d	0r	0r
.	4f	.	.	.	.	.	.
4A	4e	.	4cc	.	.	.	.
4B-	1d	.	4dd	.	.	.	.
4c	.	.	4ee	.	.	.	.
[2d	.	4a	2ff	.	.	.	.
.	.	4g	.	.	.	.	.
=10	=10	=10	=10	=10	=10	=10	=10
2d]	1.A	2.a	1ee	0A	0a	1r	0ee
4c#	.	.	.	.	.	.	.
4B	.	8g	.	.	.	.	.
.	.	8f	.	.	.	.	.
1c#	.	1e	1a	.	.	[1a	.
.	[2a	.	.	.	.	.	.
=11	=11	=11	=11	=11	=11	=11	=11
1d	4a]	2.d	2.f	1d	2r	1a]	1ff
.	4g	.	.	.	.	.	.
.	1f	.	.	.	2a	.	.
.	.	4e	4g	.	.	.	.
1D	.	1f	1a	1d	4f	1a	2dd
.	.	.	.	.	4g	.	.
.	2d	.	.	.	4a	.	[2ff
.	.	.	.	.	4f	.	.
=12	=12	=12	=12	=12	=12	=12	=12
1r	2r	2r	1r	1c	2.g	1cc	2ff]
.	1g	1c	.	.	.	.	4ee
.	.	.	.	.	4f	.	4dd
1C	.	.	1cc	2r	4e	1g	1ee
.	.	.	.	.	4d	.	.
.	[2G	[2g	.	[2c	2c	.	.
=13	=13	=13	=13	=13	=13	=13	=13
1G	4G]	2g]	2dd	2c]	1G	2r	0dd
.	4A	.	.	.	.	.	.
.	4B-	2d	4g	2B-	.	2b-	.
.	4c	.	4a	.	.	.	.
1G	2d	1g	4b-	4G	2r	2b-	.
.	.	.	4cc	4A	.	.	.
.	2G	.	4dd	4B-	[2d	2b-	.
.	.	.	4ee	4c	.	.	.
=14	=14	=14	=14	=14	=14	=14	=14
2.D	1.A	2f	2.ff	1d	4d]	2a	2r
.	.	.	.	.	4e	.	.
.	.	2.a	.	.	1f	2f	2ff
4E	.	.	8ee	.	.	.	.
.	.	.	8dd	.	.	.	.
1F	.	.	1cc	1A	.	2a	2ff
.	.	4g	.	.	.	.	.
.	[2c	2f	.	.	2F	2a	2ff
=15	=15	=15	=15	=15	=15	=15	=15
0C	4c]	1.g	0cc	2r	1c	2g	2ee
.	4d	.	.	.	.	.	.
.	4e	.	.	2c	.	2.cc	2cc
.	4f	.	.	.	.	.	.
.	2g	.	.	2c	2r	.	1ee
.	.	.	.	.	.	4b-	.
.	2e	2c	.	2c	2g	4g	.
.	.	.	.	.	.	4a	.
=16	=16	=16	=16	=16	=16	=16	=16
0r	0r	0r	0r	2B-	2g	4b-	2.dd
.	.	.	.	.	.	4cc	.
.	.	.	.	2G	2g	2.b-	.
.	.	.	.	.	.	.	4cc
.	.	.	.	2B-	2f	.	4dd
.	.	.	.	.	.	4a	4ee
.	.	.	.	2B-	2d	4f	[2ff
.	.	.	.	.	.	4g	.
=17	=17	=17	=17	=17	=17	=17	=17
0r	2r	1r	0r	0A	1f	1.a	4ff]
.	.	.	.	.	.	.	4ee
.	2a	.	.	.	.	.	1dd
.	2a	2r	.	.	1e	.	.
.	2a	2a	.	.	.	2e	2cc#
=18	=18	=18	=18	=18	=18	=18	=18
2r	2f	2a	2r	0D	0d	2.f	0dd
2d	2d	2a	2ff	.	.	.	.
.	.	.	.	.	.	4g	.
2d	2r	2f	2ff	.	.	1a	.
2d	2a	2d	2ff	.	.	.	.
=19	=19	=19	=19	=19	=19	=19	=19
2c	2a	1.e	2ee	0r	0r	2r	0r
2A	2a	.	2cc	.	.	2cc	.
1c	2g	.	2ee	.	.	2cc	.
.	2e	2c	2ee	.	.	2cc	.
=20	=20	=20	=20	=20	=20	=20	=20
2G	1g	[0d	2.dd	0r	1g	2b-	1r
2.G	.	.	.	.	.	2g	.
.	.	.	4cc	.	.	.	.
.	2g	.	4b-	.	2g	2b-	1dd
4A	.	.	4cc	.	.	.	.
4B-	[2d	.	4dd	.	2g	2b-	.
4c	.	.	4ee	.	.	.	.
=21	=21	=21	=21	=21	=21	=21	=21
1d	4d]	1d]	1ff	0r	2f	2a	2dd
.	4e	.	.	.	.	.	.
.	2f	.	.	.	2d	4f	2dd
.	.	.	.	.	.	4g	.
1r	1r	1r	1r	.	[1f	4a	2cc
.	.	.	.	.	.	4b-	.
.	.	.	.	.	.	4cc	2a
.	.	.	.	.	.	4b-	.
=22	=22	=22	=22	=22	=22	=22	=22
0r	0r	0r	0r	1r	2f]	2a	1cc
.	.	.	.	.	2e	1g	.
.	.	.	.	2r	1d	.	2b-
.	.	.	.	2d	.	4f	[2a
.	.	.	.	.	.	4e	.
=23	=23	=23	=23	=23	=23	=23	=23
0r	0r	1r	0r	2d	2r	2f	4a]
.	.	.	.	.	.	.	4g
.	.	.	.	2d	2a	2d	4a
.	.	.	.	.	.	.	4b-
.	.	1cc	.	2c	2a	[1e	4cc
.	.	.	.	.	.	.	4dd
.	.	.	.	2A	2a	.	[2ee
=24	=24	=24	=24	=24	=24	=24	=24
0r	1r	2cc	0r	1c	2g	2e]	4ee]
.	.	.	.	.	.	.	4ff
.	.	2cc	.	.	2e	2c	1gg
.	1g	2b-	.	2G	[1g	[1d	.
.	.	2g	.	[2G	.	.	[2dd
=25	=25	=25	=25	=25	=25	=25	=25
0r	2g	2b-	2r	4G]	2g]	0d]	2dd]
.	.	.	.	4A	.	.	.
.	2g	2b-	2dd	4B-	2.d	.	2dd
.	.	.	.	4c	.	.	.
.	2f	[1a	2dd	1d	.	.	1ff
.	.	.	.	.	4e	.	.
.	2d	.	2dd	.	[2f	.	.
=26	=26	=26	=26	=26	=26	=26	=26
2r	2.f	1a]	2cc	2r	4f]	2.a	2r
.	.	.	.	.	4g	.	.
2d	.	.	2.a	2.D	1a	.	2ff
.	4g	.	.	.	.	4g	.
2d	1a	2r	.	.	.	1f	2ff
.	.	.	4g	4E	.	.	.
2d	.	2a	4a	4F	2f	.	2ff
.	.	.	4b-	4G	.	.	.
=27	=27	=27	=27	=27	=27	=27	=27
2c	0r	2a	2cc	4A	2r	2r	2ee
.	.	.	.	4B-	.	.	.
2A	.	2a	2.cc	2c	1e	2cc	2cc
2c	.	2g	.	2C	.	2cc	2ee
.	.	.	4b-	.	.	.	.
2c	.	2e	4g	2C	2c	2cc	2ee
.	.	.	4a	.	.	.	.
=28	=28	=28	=28	=28	=28	=28	=28
2G	1g	1g	4b-	0G	2.d	2b-	[0dd
.	.	.	4a	.	.	.	.
2.G	.	.	4b-	.	.	2g	.
.	.	.	4cc	.	4c	.	.
.	2g	2d	4dd	.	4B-	2b-	.
4A	.	.	4cc	.	4A	.	.
4B-	2g	[2d	4dd	.	2G	2b-	.
4c	.	.	4ee	.	.	.	.
=29	=29	=29	=29	=29	=29	=29	=29
2d	2f	4d]	4ff	0D	1A	0a	0dd]
.	.	4e	4gg	.	.	.	.
2.D	2d	4f	2.ff	.	.	.	.
.	.	4g	.	.	.	.	.
.	1f	[1a	.	.	2r	.	.
4E	.	.	4ee	.	.	.	.
4F	.	.	[2dd	.	2a	.	.
4G	.	.	.	.	.	.	.
=30	=30	=30	=30	=30	=30	=30	=30
1A	1e	2a]	2dd]	1r	2a	2r	1r
.	.	2e	2cc#	.	2a	2a	.
[1D	1d	2.f	[1dd	2r	2f	2a	2r
.	.	.	.	2d	2d	2a	2ff
.	.	4g	.	.	.	.	.
=31	=31	=31	=31	=31	=31	=31	=31
1D]	2r	1a	0dd]	2d	2f	2f	2ff
.	2d	.	.	2d	2f	2d	2ff
1G	2d	2r	.	2B-	2.g	2.b-	2dd
.	2d	2b-	.	2G	.	.	2b-
.	.	.	.	.	8f	4a	.
.	.	.	.	.	8e	.	.
=32	=32	=32	=32	=32	=32	=32	=32
2G	2B-	2b-	1r	2.B-	1d	2g	2.dd
2G	2G	2b-	.	.	.	2.d	.
.	.	.	.	4c	.	.	4ee
2F	[1A	2a	2r	1d	2r	.	1ff
.	.	.	.	.	.	4e	.
2D	.	4f	2ff	.	2a	[2f	.
.	.	4g	.	.	.	.	.
=33	=33	=33	=33	=33	=33	=33	=33
2F	2A]	4a	2ff	2.A	2a	4f]	2.cc
.	.	4b-	.	.	.	4e	.
2F	2F	1cc	2ff	.	2a	2.c	.
.	.	.	.	4B-	.	.	4dd
2C	2G	.	2ee	1c	2g	.	4ee
.	.	.	.	.	.	4d	4ff
[2C	2c	[2g	2cc	.	2e	[2e	2gg
=34	=34	=34	=34	=34	=34	=34	=34
4C]	2c	2g]	2ee	1c	0g	4e]	1cc
4D	.	.	.	.	.	4f	.
4E	2c	2g	2ee	.	.	1g	.
4F	.	.	.	.	.	.	.
4G	2B-	2.b-	1dd	[1G	.	.	2r
4A	.	.	.	.	.	.	.
[2B-	2G	.	.	.	.	2d	2dd
.	.	4a	.	.	.	.	.
=35	=35	=35	=35	=35	=35	=35	=35
4B-]	2.B-	2g	2.b-	1G]	1g	0b-	2dd
4A	.	.	.	.	.	.	.
1G	.	2.b-	.	.	.	.	2dd
.	4A	.	4cc	.	.	.	.
.	4G	.	[1dd	2.B-	[1d	.	4b-
.	4A	4a	.	.	.	.	4cc
2G	4B-	[2g	.	.	.	.	4dd
.	4G	.	.	4c	.	.	4ee
=36	=36	=36	=36	=36	=36	=36	=36
0D	1A	2g]	1dd]	1d	1d]	1a	2ff
.	.	4f#	.	.	.	.	2dd
.	.	4e	.	.	.	.	.
.	1A	2f#	1a	1d	2r	1d	2.dd
.	.	2f#	.	.	[2d	.	.
.	.	.	.	.	.	.	4dd
=37	=37	=37	=37	=37	=37	=37	=37
0G	0G	0g	0b	0G	2d]	0d	0dd
.	.	.	.	.	2B	.	.
.	.	.	.	.	1B	.	.
*	*	*	*	*-	*-	*-	*-
!! Pleni
*Ibass	*Itenor	*Icalto	*Icant
!Bassus	!Tenor	!Altus	!Cantus
*clefF4	*clefGv2	*clefG2	*clefG2
*k[b-]	*k[b-]	*k[b-]	*k[b-]
*G:dor	*G:dor	*G:dor	*G:dor
*M4/2	*M4/2	*M4/2	*M4/2
=38	=38	=38	=38
0r	0r	1r	0dd
.	.	[1g	.
=39	=39	=39	=39
0r	0r	1g]	1ee
.	.	1a	1ff
=40	=40	=40	=40
0r	0r	1b	1gg
.	.	1cc	1ee
=41	=41	=41	=41
0r	0r	2a	2.ff
.	.	2.b-	.
.	.	.	4ee
.	.	.	4dd
.	.	4a	4cc
.	.	4g	4b-
.	.	4f	4a
=42	=42	=42	=42
0r	0r	2g	2b-
.	.	2.cc	2.a
.	.	4b-	4g
.	.	4b-	[2g
.	.	8a	.
.	.	8g	.
=43	=43	=43	=43
1r	0d	1a	2g]
.	.	.	2f#
[1G	.	2.b-	[1g
.	.	4a	.
=44	=44	=44	=44
1G]	1e	4g	1g]
.	.	4f	.
.	.	4e	.
.	.	4d	.
1A	1f	1c	1r
=45	=45	=45	=45
1B-	1g	1d	0r
1c	1e	1r	.
=46	=46	=46	=46
2A	2.f	1r	0r
2.B-	.	.	.
.	4e	.	.
.	4d	[1d	.
4A	4c	.	.
4G	4B-	.	.
4F	4A	.	.
=47	=47	=47	=47
2G	4B-	1d]	1r
.	4c	.	.
2B-	1d	.	.
1A	.	1e	[1a
.	2c#	.	.
=48	=48	=48	=48
1D	1d	1f	1a]
1r	1G	1g	1b-
=49	=49	=49	=49
0r	2A	2e	1cc
.	2A	2.f	.
.	1B-	.	1dd
.	.	4e	.
.	.	4d	.
.	.	4c	.
=50	=50	=50	=50
1r	2G	2d	2b-
.	4c	2e	2.cc
.	4d	.	.
[1A	4e	2c	.
.	8d	.	4b-
.	8e	.	.
.	2f	[2d	4a
.	.	.	4g
=51	=51	=51	=51
1A]	1e	2d]	2.a
.	.	2c#	.
.	.	.	4g
1B-	2d	1d	2f
.	2G	.	2g
=52	=52	=52	=52
1c	1A	2r	1e
.	.	2a	.
1d	1r	2f	2d
.	.	2f	2dd
=53	=53	=53	=53
2B-	1r	4g	2dd
.	.	4f	.
2.c	.	4e	2g
.	.	4d	.
.	[1c	2e	2.cc
4B-	.	.	.
4A	.	2e	.
4G	.	.	4b-
=54	=54	=54	=54
2.A	1c]	2f	4a
.	.	.	4g
.	.	2.e	1a
4G	.	.	.
2F	1d	.	.
.	.	4d	.
2G	.	[2d	2b-
=55	=55	=55	=55
1E	1e	2d]	1g
.	.	2c#	.
1D	1f	[1d	2r
.	.	.	2dd
=56	=56	=56	=56
1BB-	2d	1d]	2.ff
.	2.f	.	.
.	.	.	4ee
[1B-	.	1d	4dd
.	4e	.	4cc
.	4d	.	4b-
.	4c	.	4a
=57	=57	=57	=57
2B-]	2.d	2.f	2b-
2F	.	.	2.a
.	4c	4e	.
2G	2B-	2d	.
.	.	.	4g
2C	2c	2e-	[2g
=58	=58	=58	=58
2r	1A	1c	2g]
1c	.	.	2f#
.	1G	2d	1g
2B-	.	[2g	.
=59	=59	=59	=59
2G	0r	2g]	2r
1B-	.	2f	1dd
.	.	2d	.
4A	.	[2f	2cc
4G	.	.	.
=60	=60	=60	=60
2F	1r	4f]	2a
.	.	4e	.
2G	.	1d	1b-
1E-	2r	.	.
.	[2g	2c	4a
.	.	.	4g
=61	=61	=61	=61
0D	2g]	2.d	2b-
.	2f	.	2.a
.	.	4e	.
.	2d	4f	.
.	.	4g	4g
.	[2f	[2a	4f
.	.	.	4g
=62	=62	=62	=62
0r	2f]	2a]	4a
.	.	.	4b-
.	4e	4g	4cc
.	4d	4f	4dd
.	2c	2g	2ee
.	2d	2f	[2ff
=63	=63	=63	=63
0r	1B-	4d	4ff]
.	.	4e	4ee
.	.	4f	1dd
.	.	4d	.
.	1A	2e	.
.	.	2f	2cc
=64	=64	=64	=64
2r	1G	1g	1b-
1G	.	.	.
.	2r	1d	[1a
2F	[2d	.	.
=65	=65	=65	=65
2D	2d]	0r	1a]
1F	2c	.	.
.	2A	.	1r
4E	[2c	.	.
4D	.	.	.
=66	=66	=66	=66
4C	4c]	2r	1r
4D	4B-	.	.
4E	4G	1g	.
4F	4A	.	.
4G	4B-	.	2r
4A	4c	.	.
[2B-	4d	2f	[2dd
.	4e	.	.
=67	=67	=67	=67
2B-]	4f	2d	2dd]
.	4g	.	.
4A	1a	1f	2cc
4G	.	.	.
2F	.	.	2a
2G	4g	4e	[2b-
.	4f	4d	.
=68	=68	=68	=68
2A	2e	2c	4b-]
.	.	.	4a
2D	2f	2d	1a
2r	2.d	1B-	.
[2d	.	.	2g
.	4e	.	.
=69	=69	=69	=69
2d]	2f	2A	2.a
2c	4e	1a	.
.	4d	.	4b-
2A	[1e	.	1cc
[2c	.	2g	.
=70	=70	=70	=70
2c]	2e]	2e	1g
4B-	2d	1g	.
4A	.	.	.
4G	1d	.	2r
4A	.	.	.
[2B-	.	4f	[2dd
.	.	4e	.
=71	=71	=71	=71
2B-]	0r	4d	2dd]
.	.	4e	.
4A	.	2.f	2cc
4G	.	.	.
4F	.	.	2a
4G	.	4e	.
2A	.	2c	[2cc
=72	=72	=72	=72
0G	1r	0d	2cc]
.	.	.	4b-
.	.	.	4a
.	2r	.	4g
.	.	.	4a
.	[2g	.	4b-
.	.	.	4cc
=73	=73	=73	=73
1D	2g]	2r	4dd
.	.	.	4ee
.	2f	2a	2.ff
[1D	2d	2b-	.
.	.	.	4ee
.	[2f	[2a	4dd
.	.	.	4cc
=74	=74	=74	=74
2D]	2f]	2a]	2dd
2E	4e	2g	2.cc
.	4d	.	.
1F	2c	4a	.
.	.	4g	4b-
.	2d	4f	[2a
.	.	4e	.
=75	=75	=75	=75
1G	1B-	0d	4a]
.	.	.	4g
.	.	.	1g
1D	1A	.	.
.	.	.	2f#
=76	=76	=76	=76
0G	0G	0d	0g
*-	*-	*-	*-
!! Hosanna
**kern	**kern	**kern	**kern	**kern	**kern	**kern	**kern
*Ibass	*Itenor	*Icalto	*Icant	*Ibass	*Itenor	*Icalto	*Icant
!Bassus	!Tenor	!Altus	!Cantus	!Bassus	!Tenor	!Altus	!Cantus
*clefF4	*clefGv2	*clefG2	*clefG2	*clefF4	*clefGv2	*clefG2	*clefG2
*k[b-]	*k[b-]	*k[b-]	*k[b-]	*k[b-]	*k[b-]	*k[b-]	*k[b-]
*G:dor	*G:dor	*G:dor	*G:dor	*G:dor	*G:dor	*G:dor	*G:dor
*M3/2	*M3/2	*M3/2	*M3/2	*M3/2	*M3/2	*M3/2	*M3/2
=77	=77	=77	=77	=77	=77	=77	=77
1r	1r	1r	1r	1r	1r	1g	1r
2r	2r	2r	2r	2r	2r	2d	2r
=78	=78	=78	=78	=78	=78	=78	=78
1r	1r	1r	1r	1r	1r	1g	1dd
2r	2r	2r	2r	2r	2r	2f	2a
=79	=79	=79	=79	=79	=79	=79	=79
1r	1r	1r	1r	1r	1d	2b-	1dd
.	.	.	.	.	.	4a	.
.	.	.	.	.	.	4g	.
2r	2r	2r	2r	2r	2A	[2a	2cc
=80	=80	=80	=80	=80	=80	=80	=80
1r	1r	1r	1r	1r	1d	4a]	1ff
.	.	.	.	.	.	4g	.
.	.	.	.	.	.	2f	.
2r	2r	2r	2r	2r	2c	2g	2ee
=81	=81	=81	=81	=81	=81	=81	=81
1r	1r	1r	1r	1r	2f	2a	1dd
.	.	.	.	.	1e	2.g	.
2r	2r	2r	2r	2r	.	.	2cc
.	.	.	.	.	.	4a	.
=82	=82	=82	=82	=82	=82	=82	=82
1r	1r	1r	1r	1G	1.d	1b-	2dd
.	.	.	.	.	.	.	2g
2r	2r	2r	2r	2D	.	2a	2f
=83	=83	=83	=83	=83	=83	=83	=83
1r	1r	1r	1r	1G	1d	1g	1b-
2r	2r	2r	2r	2F	2f	2a	2cc
=84	=84	=84	=84	=84	=84	=84	=84
1r	1r	1r	1r	2.B-	2.f	1b-	4dd
.	.	.	.	.	.	.	4cc
.	.	.	.	.	.	.	4dd
.	.	.	.	8A	4g	.	4ee
.	.	.	.	8G	.	.	.
2r	2r	2r	2r	2F	2a	[2cc	2ff
=85	=85	=85	=85	=85	=85	=85	=85
1r	1r	1r	1r	2c	1g	4cc]	2ee
.	.	.	.	.	.	4b-	.
.	.	.	.	1d	.	1a	1dd
2r	2r	2r	2r	.	2f#	.	.
=86	=86	=86	=86	=86	=86	=86	=86
1G	1d	1g	1b-	2G	2g	2g	2dd
.	.	.	.	2r	2r	2r	2r
2D	2d	2f	2a	2r	2r	2r	2r
=87	=87	=87	=87	=87	=87	=87	=87
1G	1d	1g	1b-	1r	1r	1r	1r
2F	2f	2a	2cc	2r	2r	2r	2r
=88	=88	=88	=88	=88	=88	=88	=88
1B-	4f	2b-	1dd	1r	1r	1r	1r
.	4e	.	.	.	.	.	.
.	4d	4f	.	.	.	.	.
.	4e	4g	.	.	.	.	.
2F	4f	4a	2cc	2r	2r	2r	2r
.	4g	4g	.	.	.	.	.
=89	=89	=89	=89	=89	=89	=89	=89
2D	2a	4f	2dd	1r	1r	1r	1r
.	.	4e	.	.	.	.	.
1G	2g	2d	4b-	.	.	.	.
.	.	.	4cc	.	.	.	.
.	[2d	2g	4dd	2r	2r	2r	2r
.	.	.	4ee	.	.	.	.
=90	=90	=90	=90	=90	=90	=90	=90
1D	4d]	1.a	2ff	1d	1f	1a	1dd
.	4e	.	.	.	.	.	.
.	2f	.	2dd	.	.	.	.
2A	2e	.	2cc#	2A	2a	2a	2ee
=91	=91	=91	=91	=91	=91	=91	=91
1D	1d	1a	1dd	1d	2a	4f	1ff
.	.	.	.	.	.	4g	.
.	.	.	.	.	2f	4a	.
.	.	.	.	.	.	4b-	.
2r	2r	2r	2r	2c	2g	2cc	2ee
=92	=92	=92	=92	=92	=92	=92	=92
1r	1r	1a	1r	1F	2a	2cc	2.ff
.	.	.	.	.	2f	2.cc	.
.	.	.	.	.	.	.	8ee
.	.	.	.	.	.	.	8dd
2r	2r	2e	2r	2C	2g	.	2ee
.	.	.	.	.	.	4b-	.
=93	=93	=93	=93	=93	=93	=93	=93
1d	1r	1a	1dd	1D	1f	4a	2ff
.	.	.	.	.	.	4g	.
.	.	.	.	.	.	2f	2dd
2A	2r	2a	2ee	2A	2e	2a	2cc#
=94	=94	=94	=94	=94	=94	=94	=94
1d	1a	4f	2ff	1D	1d	1a	1dd
.	.	4g	.	.	.	.	.
.	.	4a	2f	.	.	.	.
.	.	4b-	.	.	.	.	.
2c	2e	2cc	2g	2r	2r	2r	2r
=95	=95	=95	=95	=95	=95	=95	=95
2.F	1a	2cc	4f	1r	1r	1r	1r
.	.	.	4g	.	.	.	.
.	.	1c	4a	.	.	.	.
4G	.	.	4b-	.	.	.	.
2A	2f	.	4cc	2r	2r	2r	2r
.	.	.	4a	.	.	.	.
=96	=96	=96	=96	=96	=96	=96	=96
2.G	2.g	2d	1.b-	2r	1r	1r	1dd
.	.	1g	.	1G	.	.	.
4A	8f	.	.	.	.	.	.
.	8e	.	.	.	.	.	.
4B-	[2d	.	.	.	2r	2r	2g
4c	.	.	.	.	.	.	.
=97	=97	=97	=97	=97	=97	=97	=97
1d	2d]	2f	[1.a	2D	1r	1a	2dd
.	1A	1e	.	1A	.	.	2ee
2c#	.	.	.	.	2r	2e	2ee
=98	=98	=98	=98	=98	=98	=98	=98
1d	2.f	1.d	1.a]	2.D	1d	1.a	2.ff
.	4g	.	.	4E	.	.	4ee
2D	2a	.	.	2F	2A	.	4dd
.	.	.	.	.	.	.	4cc
=99	=99	=99	=99	=99	=99	=99	=99
1r	1r	1r	1r	2G	1d	2g	2b-
.	.	.	.	2D	.	2.f	4a
.	.	.	.	.	.	.	4g
2r	2r	2r	2r	[2F	2c	.	2a
.	.	.	.	.	.	4g	.
=100	=100	=100	=100	=100	=100	=100	=100
2r	2r	2r	2r	4F]	2f	1a	1dd
.	.	.	.	4G	.	.	.
2r	2r	2r	2r	1A	1e	.	.
2A	2a	2a	2ee	.	.	2a	2cc#
=101	=101	=101	=101	=101	=101	=101	=101
2.d	2a	2f	2.ff	1D	1d	1a	1dd
.	2f	2a	.	.	.	.	.
4d	.	.	4ff	.	.	.	.
2c	[2g	2cc	2ee	2r	2r	2r	2r
=102	=102	=102	=102	=102	=102	=102	=102
4G	2g]	2b-	4dd	1r	1r	1r	1r
4A	.	.	4cc	.	.	.	.
4B-	2.f	2b-	4dd	.	.	.	.
4c	.	.	4ee	.	.	.	.
2d	.	4a	2ff	2r	2r	2r	2r
.	4g	4b-	.	.	.	.	.
=103	=103	=103	=103	=103	=103	=103	=103
2A	4a	4cc	2ee	1r	1r	1r	1r
.	4g	4b-	.	.	.	.	.
2.d	4f	4a	2.ff	.	.	.	.
.	4e	4g	.	.	.	.	.
.	2d	2f	.	2r	2r	2r	2r
4c	.	.	4ee	.	.	.	.
=104	=104	=104	=104	=104	=104	=104	=104
2B-	2d	2g	1dd	2r	2r	2r	2r
1A	1e	1a	.	2r	2r	2r	2r
.	.	.	2cc#	2A	2a	2a	2ee
=105	=105	=105	=105	=105	=105	=105	=105
1D	1d	1a	1dd	2.d	2a	2f	2.ff
.	.	.	.	.	2f	2a	.
.	.	.	.	4d	.	.	4ff
2r	2r	2r	2r	2c	[2g	2cc	2ee
=106	=106	=106	=106	=106	=106	=106	=106
1r	1r	1r	1r	4G	2g]	1b-	4dd
.	.	.	.	4A	.	.	4cc
.	.	.	.	4B-	2.f	.	4dd
.	.	.	.	4c	.	.	4ee
2r	2r	2r	2r	2d	.	4a	2ff
.	.	.	.	.	4g	4b-	.
=107	=107	=107	=107	=107	=107	=107	=107
1r	1r	1r	1r	2A	4a	4cc	2ee
.	.	.	.	.	4g	4b-	.
.	.	.	.	2.d	4f	4a	2.ff
.	.	.	.	.	4e	4g	.
2r	2r	2r	2r	.	2d	2f	.
.	.	.	.	4c	.	.	4ee
=108	=108	=108	=108	=108	=108	=108	=108
2r	2r	2r	2r	2B-	1g	2b-	2dd
2r	2r	2r	2r	2c	.	1a	2ee
2D	2d	2d	2a	2d	2f#	.	2dd
=109	=109	=109	=109	=109	=109	=109	=109
2.G	2B-	2d	2.b-	2r	2g	2g	1dd
.	2G	2g	.	2G	1d	2b-	.
4G	.	.	4b-	.	.	.	.
2D	2A	[2f	2dd	[2d	.	2a	[2ff
=110	=110	=110	=110	=110	=110	=110	=110
2D	2d	4f]	1a	4d]	2.f	2a	4ff]
.	.	4g	.	4d	.	.	4ff
1F	1c	2a	.	2A	.	2a	2cc
.	.	.	.	.	4f	.	.
.	.	2f	[2cc	2A	2c	2a	2cc
=111	=111	=111	=111	=111	=111	=111	=111
2C	1c	2g	4cc]	1c	2c	2g	1ee
.	.	.	4dd	.	.	.	.
2c	.	2e	4ee	.	1g	2c	.
.	.	.	4ff	.	.	.	.
2B	2d	2r	2gg	2G	.	2r	2dd
=112	=112	=112	=112	=112	=112	=112	=112
2c	2e	1g	1ee	2C	2g	2.e	2gg
2C	2c	.	.	2c	2r	.	2gg
.	.	.	.	.	.	4f	.
2G	2d	2g	2dd	2B	2G	2g	2gg
=113	=113	=113	=113	=113	=113	=113	=113
2C	2e	2g	1cc	1c	2c	1g	1ee
2C	2g	2e	.	.	2e	.	.
2F	2c	2a	2cc	2A	2f	2a	2cc
=114	=114	=114	=114	=114	=114	=114	=114
1D	2r	2f	1ff	2.d	2f	1a	1dd
.	2A	2d	.	.	1a	.	.
.	.	.	.	8c#	.	.	.
.	.	.	.	8B	.	.	.
2A	2A	2r	2ee	2c#	.	2e	2ee
=115	=115	=115	=115	=115	=115	=115	=115
2D	2A	2f	1dd	2d	2f	2a	2ff
2d	2f	2d	.	2D	2r	2f	2r
2c#	2e	2A	2ee	2A	2a	2r	2a
=116	=116	=116	=116	=116	=116	=116	=116
2d	2d	2f	2ff	2D	2f	2a	2a
2D	2A	2.a	1dd	2d	2d	2f	2ff
[2G	2B-	.	.	2B-	2d	2g	2dd
.	.	4g	.	.	.	.	.
=117	=117	=117	=117	=117	=117	=117	=117
2G]	2B-	1g	2.dd	2G	2d	2g	2b-
1D	1A	.	.	1d	1d	2a	1dd
.	.	.	4cc	.	.	.	.
.	.	2f#	2a	.	.	2d	.
=118	=118	=118	=118	=118	=118	=118	=118
1.G	1.G	1.g	1.b	1.G	1.B	1.d	1.dd
==	==	==	==	==	==	==	==
*-	*-	*-	*-	*-	*-	*-	*-
!!!CDT: 1525/^1526/-1594/2/2
!!!OCY: Italia
!!!AGN: Mass (Parody)
!!!AST: renaissance, vocal
!!!ASW: Motet 1572 (Palestrina)
!!!PWK: Masses, Book 8vce
!!!RNB: Cadence finals: D,Bb
!!!YOR: Le Opere Complete, v. 30, p. 163
!!!YOO: Rome, Italy: Fratelli Scalera
!!!END: 1992//
!!!EED: John Miller
!!!YEC: Copyright 2000, John Miller
!!!YEN: United States of America
!!!YEM: Rights to all derivative electronic formats reserved.
!!!YEM: Refer to licensing agreement for further details.
!!!YEM: This file must be accompanied by the licensing agreement.
!!!YEM: A copy of the licensing agreement may be found at http://www.music-cog.ohio-state.edu/HumdrumDatabases/Palestrina/license.txt
!!!EMD: converted to Humdrum by Bret Aarden
